X:78
T:Clark's 103 Psalm. WHG.077
R:hymn
S:W.H.Giles MS,Bampton,Oxfordshire,1839p77
O:England
H:donated by Mrs W.R.Kettlewell to VWML,Apr 1927.
A:Bampton, Oxfordshire
Z:PJHeadford - VMP 2009
M:2/4
L:1/8
Q:1/4=80
K:D
d2|d3 c|d3 e|fe dc|d3 f|\
fe ed|c2 B2|A4||
A2|FD AF|d3 e|fd gf|e3 A|\
"^Soft"BA Bc|dc de|
f2 e"^For"f/g/|\
fed g|f2 e2|d4|]

